!!!SOCIAL_FUNCTION:	songs to insure success
!!!PDT:	1909
!!!OTL: No_65_Hunting_Song_(a).krn
!!!REG: Great_Lakes
!!!LANG: Non-Tone
!!!LING_GROUP: Algonquin
**kern
*staff1
=1-
*clefF4
*k[b-e-a-]
*M6/4
8d\L
8d\J
4c\
8d\L
8d\J
4d\
4d\
4c\
=2
2.B-\
4B-\
2B-\
=3
8d\L
8d\J
4c\
8d\L
8d\J
4d\
4d\
4c\
=4||
*M3/4
4B-\
8B-\L
8G\J
4F\
=5||
*M4/4
4.E-\
8E-\
4E-\
4F\
=6||
*M6/4
8B-\L
8B-\J
4B-\
8A-\L
8A-\J
4A-\
4A-\
4A-\
=7||
*M2/4
2F\
=8||
*M6/4
8A-\L
8A-\J
4A-\
8F-\L
8F-\J
4E-\
4Fn\
4F\
=9
2.E-\
4E-\
4E-\
4E-\
=10
8B-\L
8B-\J
4B-\
8B-\L
8B-\J
4B-\
4c\
4c\
=11
2.B-\
4B-\
2B-\
=12
8d\L
8d\J
4c\
8d\L
8d\J
4d\
4d\
4c\
=13||
*M3/4
4B-\
8B-\L
8G\J
4F\
=14||
*M4/4
4.E-\
8E-\
4E-\
4F\
=15||
*M6/4
8B-\L
8B-\J
4B-\
8A-\L
8A-\J
4A-\
4A-\
4A-\
=16||
*M2/4
2F\
=17||
*M6/4
8A-\L
8A-\J
4A-\
8F-\L
8F-\J
4E-\
4Fn\
4F\
=18
2.E-\
4E-\
4E-\
4E-\
==
*-
